sirius_gui/src/main/resources/icons/circular-icons-svg/c-information.svg

<?xml version="1.0" encoding="UTF-8" standalone="no"?>
<svg
   width="64px"
   height="64px"
   viewBox="0 0 64 64"
   version="1.1"
   id="svg14892"
   sodipodi:docname="c-information.svg"
   inkscape:version="1.2 (dc2aeda, 2022-05-15)"
   xmlns:inkscape="http://www.inkscape.org/namespaces/inkscape"
   xmlns:sodipodi="http://sodipodi.sourceforge.net/DTD/sodipodi-0.dtd"
   xmlns="http://www.w3.org/2000/svg"
   xmlns:svg="http://www.w3.org/2000/svg"
   xmlns:sketch="http://www.bohemiancoding.com/sketch/ns">
  <sodipodi:namedview
     id="namedview14894"
     pagecolor="#ffffff"
     bordercolor="#000000"
     borderopacity="0.25"
     inkscape:showpageshadow="2"
     inkscape:pageopacity="0.0"
     inkscape:pagecheckerboard="0"
     inkscape:deskcolor="#d1d1d1"
     showgrid="false"
     inkscape:zoom="3.6875"
     inkscape:cx="0.94915254"
     inkscape:cy="32.40678"
     inkscape:window-width="1387"
     inkscape:window-height="547"
     inkscape:window-x="0"
     inkscape:window-y="39"
     inkscape:window-maximized="0"
     inkscape:current-layer="svg14892" />
  <!-- Generator: Sketch 3.4 (15575) - http://www.bohemiancoding.com/sketch -->
  <title
     id="title14882">c-information</title>
  <desc
     id="desc14884">Created with Sketch.</desc>
  <defs
     id="defs14886" />
  <path
     d="M 32,64 C 49.673112,64 64,49.673112 64,32 64,14.326888 49.673112,0 32,0 14.326888,0 0,14.326888 0,32 0,49.673112 14.326888,64 32,64 Z"
     id="Oval-1"
     fill="#a5d6e6"
     sketch:type="MSShapeGroup"
     style="fill-rule:evenodd;stroke:none;stroke-width:1;fill:#b3d9e5;fill-opacity:1" />
  <path
     d="M 35,24 V 50 H 29 V 24 Z m 1,-6.961661 c 0,0.545263 -0.109704,1.05644 -0.329114,1.533546 -0.21941,0.477106 -0.510547,0.894567 -0.873418,1.252396 -0.362871,0.357829 -0.789027,0.643237 -1.278481,0.85623 C 33.029533,20.893505 32.506332,21 31.949367,21 31.40928,21 30.898737,20.893505 30.417721,20.680511 29.936706,20.467518 29.518989,20.18211 29.164557,19.824281 28.810125,19.466452 28.527427,19.048991 28.316456,18.571885 28.105484,18.094779 28,17.583602 28,17.038339 c 0,-0.562304 0.105484,-1.09052 0.316456,-1.584665 0.210971,-0.494145 0.493669,-0.920126 0.848101,-1.277955 0.354432,-0.357829 0.772149,-0.643237 1.253164,-0.85623 C 30.898737,13.106495 31.40928,13 31.949367,13 c 0.556965,0 1.080166,0.106495 1.56962,0.319489 0.489454,0.212993 0.91561,0.498401 1.278481,0.85623 0.362871,0.357829 0.654008,0.78381 0.873418,1.277955 C 35.890296,15.947819 36,16.476035 36,17.038339 Z"
     id="i"
     fill="#ffffff"
     sketch:type="MSShapeGroup"
     style="fill-rule:evenodd;stroke:none;stroke-width:1" />
</svg>

<?xml version="1.0" encoding="UTF-8"?>
<svg id="svg14892" width="64px" height="64px" version="1.1" viewBox="0 0 64 64" xmlns="http://www.w3.org/2000/svg">
 <!-- Generator: Sketch 3.4 (15575) - http://www.bohemiancoding.com/sketch -->
 <title id="title14882">c-information</title>
 <desc id="desc14884">Created with Sketch.</desc>
 <path id="Oval-1" d="m32 64c17.673 0 32-14.327 32-32s-14.327-32-32-32-32 14.327-32 32 14.327 32 32 32z" fill="#b3d9e5" fill-rule="evenodd"/>
 <path id="i" d="m35 24v26h-6v-26zm1-6.9617c0 0.54526-0.1097 1.0564-0.32911 1.5335s-0.51055 0.89457-0.87342 1.2524-0.78903 0.64324-1.2785 0.85623c-0.48945 0.21299-1.0127 0.31949-1.5696 0.31949-0.54009 0-1.0506-0.1065-1.5316-0.31949-0.48102-0.21299-0.89873-0.4984-1.2532-0.85623s-0.63713-0.77529-0.8481-1.2524c-0.21097-0.47711-0.31646-0.98828-0.31646-1.5335 0-0.5623 0.10548-1.0905 0.31646-1.5847 0.21097-0.49414 0.49367-0.92013 0.8481-1.278s0.77215-0.64324 1.2532-0.85623c0.48102-0.21299 0.99156-0.31949 1.5316-0.31949 0.55696 0 1.0802 0.1065 1.5696 0.31949 0.48945 0.21299 0.91561 0.4984 1.2785 0.85623s0.65401 0.78381 0.87342 1.278 0.32911 1.0224 0.32911 1.5847z" fill="#fff" fill-rule="evenodd"/>
</svg>
